X: 20122
T: GEN. LINCOLN'S MARCH
C:
%R: march
B: Elias Howe "The Musician's Companion" 1843 p.12 #2
S: http://imslp.org/wiki/The_Musician's_Companion_(Howe,_Elias)
Z: 2015 John Chambers <jc:trillian.mit.edu>
N: Deleted extra bar line in the middle of bar 10.
M: C
L: 1/8
K: G
% - - - - - - - - - - - - - - - - - - - - - - - - -
DE/F/ |\
G2G>G B2G>B | d2d>d g3g | f>d f>a g>fe>d | a>cB>A G2F2 |\
ADBD cDdD | GABc defg | a3g f3e | d2d>d d2 |]
g>a |\
b3g a3f | g>fe>d a>cB>A | B>cd>e f>ga>b | g>fe>d g>fg>B |\
A>GA>B A>Bc>d | e>cc>A A>GG>F | FEFG ABcA | [d2G2][dG]>[dG] [d2G2] |]
% - - - - - - - - - - - - - - - - - - - - - - - - -

%%sep 1 1 500

